!!!COM:	Pipelare, Matthaeus
!!!CDT:	~1450///-~1550//
!!!OPR:	Missa Fors seulement
!!!ONM:	1
!!!OTL:	Kyrie
!!!AGN:	Mass; Kyrie
!!!SCT:	Pip1004a
!!!SCA:	Pip1004a
!!!voices-OPR:	5
!!!voices:	5
**kern	**text	**kern	**text	**kern	**text	**kern	**text	**kern	**text
*staff5	*staff5	*staff4	*staff4	*staff3	*staff3	*staff2	*staff2	*staff1	*staff1
*Ivox	*	*Ivox	*	*Ivox	*	*Ivox	*	*Ivoxa	*
*I"Bassus	*	*I"Tenor2	*	*I"Contra	*	*I"Tenor1	*	*I"Superius	*
*I'B	*	*I'T2	*	*I'C	*	*I'T1	*	*I'S	*
*>[A,B,C]	*>[A,B,C]	*>[A,B,C]	*>[A,B,C]	*>[A,B,C]	*>[A,B,C]	*>[A,B,C]	*>[A,B,C]	*>[A,B,C]	*>[A,B,C]
*>A	*>A	*>A	*>A	*>A	*>A	*>A	*>A	*>A	*>A
*clefF4	*	*clefF4	*	*clefF4	*	*clefGv2	*	*clefG2	*
*k[]	*	*k[]	*	*k[]	*	*k[]	*	*k[]	*
*M2/1	*	*M2/1	*	*M2/1	*	*M2/1	*	*M2/1	*
*met(C|)	*	*met(C|)	*	*met(C|)	*	*met(C|)	*	*met(C|)	*
!!section: Kyrie I
!!!OMD: Kyrie I
=1-	=1-	=1-	=1-	=1-	=1-	=1-	=1-	=1-	=1-
0r	.	0r	.	0D	Ky-	0r	.	0r	.
=2	=2	=2	=2	=2	=2	=2	=2	=2	=2
0r	.	0r	.	1F	-ri-	0r	.	0r	.
.	.	.	.	1E	.	.	.	.	.
=3	=3	=3	=3	=3	=3	=3	=3	=3	=3
0r	.	0r	.	1F	-e	0r	.	0d	Ky-
.	.	.	.	1G	.	.	.	.	.
=4	=4	=4	=4	=4	=4	=4	=4	=4	=4
0r	.	0r	.	1.A	e-	0r	.	1f	-ri-
.	.	.	.	.	.	.	.	1e	.
.	.	.	.	2G\	.	.	.	.	.
=5	=5	=5	=5	=5	=5	=5	=5	=5	=5
0r	.	0r	.	2F\	.	0r	.	1f	-e
.	.	.	.	4E\	.	.	.	.	.
.	.	.	.	4D\	.	.	.	.	.
.	.	.	.	1E	-lei-	.	.	1g	.
=6	=6	=6	=6	=6	=6	=6	=6	=6	=6
0r	.	0r	.	2D\	-son	0r	.	1.a	e-
.	.	.	.	1F	[e-	.	.	.	.
.	.	.	.	2E\	.	.	.	2g/	.
=7	=7	=7	=7	=7	=7	=7	=7	=7	=7
0r	.	0r	.	2D\	.	0r	.	2f/	-lei-
.	.	.	.	4C/	.	.	.	4e/	.
.	.	.	.	4BB/	.	.	.	4d/	.
.	.	.	.	2AA/	.	.	.	2f/	.
.	.	.	.	[2A\	.	.	.	[2e/	.
=8	=8	=8	=8	=8	=8	=8	=8	=8	=8
0r	.	0r	.	2A\]	.	0r	.	4e/]	.
.	.	.	.	.	.	.	.	4A/	.
.	.	.	.	4G\	.	.	.	1d	.
.	.	.	.	4F\	.	.	.	.	.
.	.	.	.	1E	-lei-	.	.	.	.
.	.	.	.	.	.	.	.	2c#i/	.
=9	=9	=9	=9	=9	=9	=9	=9	=9	=9
[0DD	Ky-	0D	Ky-	[0D	-son	[0A	Ky-	[0d	-son
=10	=10	=10	=10	=10	=10	=10	=10	=10	=10
0DD]	.	1.F	.	0D]	.	0A]	.	0d]	.
.	.	4E\	.	.	.	.	.	.	.
.	.	4D\	.	.	.	.	.	.	.
=11	=11	=11	=11	=11	=11	=11	=11	=11	=11
1FF	-ri-	1C	.	1r	.	0A	-ri-	0r	.
1DD	.	1D	-ri-	2r	.	.	.	.	.
.	.	.	.	[2A\	Ky-	.	.	.	.
=12	=12	=12	=12	=12	=12	=12	=12	=12	=12
1.FF	-e	2AA/	.	4A\]	.	0A	-e	0r	.
.	.	.	.	4G\	.	.	.	.	.
.	.	1A	-e	4F\	.	.	.	.	.
.	.	.	.	4E\	.	.	.	.	.
.	.	.	.	2F\	-ri-	.	.	.	.
2GG/	.	4G\	.	4E\	.	.	.	.	.
.	.	4F\	.	4D\	.	.	.	.	.
=13	=13	=13	=13	=13	=13	=13	=13	=13	=13
[0AA	.	2E\	.	1C	-e	0A	[e-	2r	.
.	.	1F	e-	.	.	.	.	2.A/	Ky-
.	.	.	.	2r	.	.	.	.	.
.	.	.	.	.	.	.	.	4B/	.
.	.	4E\	.	[2c\	e-	.	.	4c/	.
.	.	4D\	.	.	.	.	.	4d/	.
=14	=14	=14	=14	=14	=14	=14	=14	=14	=14
0AA]	.	2C/	.	4c\]	.	0A	-lei-	2e/	.
.	.	.	.	4B\	.	.	.	.	.
.	.	1F	-lei-	4A\	.	.	.	2.c/	-ri-
.	.	.	.	4G\	.	.	.	.	.
.	.	.	.	2A\	.	.	.	.	.
.	.	.	.	.	.	.	.	4d/	.
.	.	[2E\	.	4G\	.	.	.	4e/	.
.	.	.	.	4F\	.	.	.	4f/	.
=15	=15	=15	=15	=15	=15	=15	=15	=15	=15
0r	.	2E\]	.	2.E\	.	0G	.	2g/	-e
.	.	4D\	.	.	.	.	.	4f/	.
.	.	4C/	.	4F\	.	.	.	4e/	.
.	.	2BB/	.	2G\	.	.	.	2d/	.
.	.	[2C/	.	[2E\	-lei-	.	.	[2e/	e-
=16	=16	=16	=16	=16	=16	=16	=16	=16	=16
0r	.	2C/]	.	2E\]	.	0G	.	4e/]	.
.	.	.	.	.	.	.	.	4f/	.
.	.	4BB/	.	4D\	.	.	.	2.g/	-lei-
.	.	4AA/	.	4C/	.	.	.	.	.
.	.	1BB	.	1D	.	.	.	.	.
.	.	.	.	.	.	.	.	4f/	.
.	.	.	.	.	.	.	.	4e/	.
.	.	.	.	.	.	.	.	4d/	.
=17	=17	=17	=17	=17	=17	=17	=17	=17	=17
1r	.	2AA/	-son	2E\	.	[0A	-son	[0c	-son
.	.	1A	Ky-	1F	.	.	.	.	.
[1AA	Ky-	.	.	.	.	.	.	.	.
.	.	4G\	.	4E\	.	.	.	.	.
.	.	4F\	.	4D\	.	.	.	.	.
=18	=18	=18	=18	=18	=18	=18	=18	=18	=18
1AA]	.	2E\	.	1C	.	0A]	.	0c]	.
.	.	1F	-ri-	.	.	.	.	.	.
1AA	-ri-	.	.	2C/	-son	.	.	.	.
.	.	4E\	.	[2c\	[e-	.	.	.	.
.	.	4D\	.	.	.	.	.	.	.
=19	=19	=19	=19	=19	=19	=19	=19	=19	=19
1C	-e	1E	.	2c\]	.	0r	.	0r	.
.	.	.	.	1A	.	.	.	.	.
1D	.	2D\	-e	.	.	.	.	.	.
.	.	[2F\	e-	[2B\	-lei	.	.	.	.
=20	=20	=20	=20	=20	=20	=20	=20	=20	=20
2AA/	.	4F\]	.	4B\]	.	0r	.	0r	.
.	.	4E\	.	4A\	.	.	.	.	.
2C/	e-	1E	-lei	1A	.	.	.	.	.
1BB	-lei-	.	.	.	.	.	.	.	.
.	.	2D\	.	2G#i\	.	.	.	.	.
=21	=21	=21	=21	=21	=21	=21	=21	=21	=21
[0AA	-son	[0E	son	[0A	son]	[0c	[Ky-	0r	.
=22	=22	=22	=22	=22	=22	=22	=22	=22	=22
0AA]	.	1E]	.	0A_	.	1c]	.	1r	.
.	.	1C	Ky-	.	.	1c	-ri-	1e	Ky-
=23	=23	=23	=23	=23	=23	=23	=23	=23	=23
0r	.	0F	-ri-	0A_	.	0c	-e]	1f	-ri-
.	.	.	.	.	.	.	.	[1a	-e
=24	=24	=24	=24	=24	=24	=24	=24	=24	=24
0AA	Ky-	0E	.	0A]	.	0c	e-	2a/]	.
.	.	.	.	.	.	.	.	4g/	.
.	.	.	.	.	.	.	.	4f/	.
.	.	.	.	.	.	.	.	1e	.
=25	=25	=25	=25	=25	=25	=25	=25	=25	=25
1.DD	-ri-	0D	-e	1r	.	0d	-lei-	1.f	e-
.	.	.	.	[1A	Ky-	.	.	.	.
2EE/	.	.	.	.	.	.	.	2g/	.
=26	=26	=26	=26	=26	=26	=26	=26	=26	=26
1FF	-e	0r	.	1A]	.	1c	-son	1a	-lei-
1GG	.	.	.	[1G	-ri-	[1B	[e-	2d/	.
.	.	.	.	.	.	.	.	[2g/	.
=27	=27	=27	=27	=27	=27	=27	=27	=27	=27
1EE	e-	1r	.	1G]	.	1B]	.	4g/]	.
.	.	.	.	.	.	.	.	4f/	.
.	.	.	.	.	.	.	.	4e/	.
.	.	.	.	.	.	.	.	4d/	.
1FF	.	2r	.	1A	-e	[1A	-lei-	2c/	-son
.	.	2C/	e-	.	.	.	.	[2f/	[e-
=28	=28	=28	=28	=28	=28	=28	=28	=28	=28
1DD	.	2D\	-lei	1F	e	1A]	.	4f/]	.
.	.	.	.	.	.	.	.	4e/	.
.	.	2AA/	.	.	.	.	.	4d/	.
.	.	.	.	.	.	.	.	4c/	.
1EE	.	1E	.	1G	.	1G	.	1B	.
=29	=29	=29	=29	=29	=29	=29	=29	=29	=29
1FF	.	[0AAl	son	1C	lei	[0Al	-son	1A	-lei
1DD	.	.	.	2D\	.	.	.	[1d	.
.	.	.	.	[2F\	.	.	.	.	.
=30	=30	=30	=30	=30	=30	=30	=30	=30	=30
0AA	-lei-	0AA_	.	2F\]	.	0A_	.	2d/]	.
.	.	.	.	4E\	.	.	.	2c#i/	.
.	.	.	.	4D\	.	.	.	.	.
.	.	.	.	1E	.	.	.	2c#i/	.
.	.	.	.	.	.	.	.	4B/	.
.	.	.	.	.	.	.	.	4c#i/	.
=31	=31	=31	=31	=31	=31	=31	=31	=31	=31
0DDl	-son	0AA]	.	0Dl	son-	0A]	.	0dl	son
!!LO:LB:i:g=z
=32||	=32||	=32||	=32||	=32||	=32||	=32||	=32||	=32||	=32||
*>B	*>B	*>B	*>B	*>B	*>B	*>B	*>B	*>B	*>B
*clefF4	*	*clefF4	*	*clefF4	*	*clefGv2	*	*clefG2	*
*k[]	*	*k[]	*	*k[]	*	*k[]	*	*k[]	*
*M2/1	*	*M2/1	*	*M2/1	*	*M2/1	*	*M2/1	*
*met(C|)	*	*met(C|)	*	*met(C|)	*	*met(C|)	*	*met(C|)	*
!!section: Christe
!!!OMD: Christe
[0AA	.	[0C	Chri-	[0E	-Chri-	[0A	Chri-	[0e	Chri-
=33	=33	=33	=33	=33	=33	=33	=33	=33	=33
0AA]	.	0C]	.	0E]	.	0A]	.	0e]	.
=34	=34	=34	=34	=34	=34	=34	=34	=34	=34
[0DD	.	0F	.	0D	.	[0A	-ste	[0f	.
=35	=35	=35	=35	=35	=35	=35	=35	=35	=35
0DD]	.	0D	.	1.F	-ste	0A]	.	0f]	.
.	.	.	.	4E\	.	.	.	.	.
.	.	.	.	4D\	.	.	.	.	.
=36	=36	=36	=36	=36	=36	=36	=36	=36	=36
[0AA	.	0E	-ste	[0C	.	0A	e-	[0e	-ste
=37	=37	=37	=37	=37	=37	=37	=37	=37	=37
0AA]	.	1r	.	0C]	.	0A	-lei	0e]	.
.	.	1E	[Chri-	.	.	.	.	.	.
=38	=38	=38	=38	=38	=38	=38	=38	=38	=38
0r	.	1G	-ste]	0r	.	0B	.	0d	.
.	.	2r	.	.	.	.	.	.	.
.	.	[2G\	e-	.	.	.	.	.	.
=39	=39	=39	=39	=39	=39	=39	=39	=39	=39
0r	.	4G\]	.	0r	.	0G	.	0g	.
.	.	4F\	.	.	.	.	.	.	.
.	.	4E\	.	.	.	.	.	.	.
.	.	4D\	.	.	.	.	.	.	.
.	.	1E	.	.	.	.	.	.	.
=40	=40	=40	=40	=40	=40	=40	=40	=40	=40
0r	.	1D	-lei	0r	.	[0A	son	1f	e-
.	.	2C/	.	.	.	.	.	2e/	.
.	.	[2D\	.	.	.	.	.	[2f/	-lei
=41	=41	=41	=41	=41	=41	=41	=41	=41	=41
0r	.	2D\]	.	1r	.	0A]	.	2f/]	.
.	.	4C/	.	.	.	.	.	4e/	.
.	.	4BB/	.	.	.	.	.	4d/	.
.	.	2C/	.	2r	.	.	.	2e/	.
.	.	[2D\	.	2D\	Chri-	.	.	[2f/	.
=42	=42	=42	=42	=42	=42	=42	=42	=42	=42
0r	.	2D\]	.	2F\	.	0r	.	2f/]	.
.	.	4C/	.	2G\	.	.	.	4e/	.
.	.	4BB/	.	.	.	.	.	4d/	.
.	.	2.AA/	.	1A	.	.	.	2f/	.
.	.	.	.	.	.	.	.	[2e/	.
.	.	4BB/	.	.	.	.	.	.	.
=43	=43	=43	=43	=43	=43	=43	=43	=43	=43
0r	.	2C/	.	4G\	.	0r	.	4e/]	.
.	.	.	.	4F\	.	.	.	4d/	.
.	.	2D\	.	4E\	.	.	.	1d	.
.	.	.	.	4D\	.	.	.	.	.
.	.	1AA	.	1E	.	.	.	.	.
.	.	.	.	.	.	.	.	2c#i/	.
=44	=44	=44	=44	=44	=44	=44	=44	=44	=44
1r	.	[0A	son	1D	-ste	0r	.	0d	son
[1D	.	.	.	2r	.	.	.	.	.
.	.	.	.	[2d\	e-	.	.	.	.
=45	=45	=45	=45	=45	=45	=45	=45	=45	=45
1D]	.	0A]	.	2d\]	.	0r	.	0r	.
.	.	.	.	4c\	.	.	.	.	.
.	.	.	.	4B\	.	.	.	.	.
1F	.	.	.	2c\	.	.	.	.	.
.	.	.	.	2d\	.	.	.	.	.
=46	=46	=46	=46	=46	=46	=46	=46	=46	=46
1E	.	0r	.	2G\	.	0r	.	0r	.
.	.	.	.	4A\	.	.	.	.	.
.	.	.	.	4B\	.	.	.	.	.
2C/	.	.	.	2c\	.	.	.	.	.
[2D\	.	.	.	[2B\	.	.	.	.	.
=47	=47	=47	=47	=47	=47	=47	=47	=47	=47
4D\]	.	0r	.	4B\]	.	0r	.	0r	.
4AA/	.	.	.	4A\	.	.	.	.	.
2C/	.	.	.	1A	.	.	.	.	.
1BB	.	.	.	.	.	.	.	.	.
.	.	.	.	2G#i\	.	.	.	.	.
=48	=48	=48	=48	=48	=48	=48	=48	=48	=48
0AA	.	0r	.	0A	-lei	0r	.	0r	.
=49	=49	=49	=49	=49	=49	=49	=49	=49	=49
1r	.	0r	.	1E	son	0r	.	0r	.
[1AA	.	.	.	2r	.	.	.	.	.
.	.	.	.	[2A\	e-	.	.	.	.
=50	=50	=50	=50	=50	=50	=50	=50	=50	=50
1AA]	.	0r	.	2A\]	.	0r	.	0r	.
.	.	.	.	4G\	.	.	.	.	.
.	.	.	.	4F\	.	.	.	.	.
1C	.	.	.	2G\	.	.	.	.	.
.	.	.	.	2A\	.	.	.	.	.
=51	=51	=51	=51	=51	=51	=51	=51	=51	=51
1BB	.	0r	.	2D\	.	0r	.	0r	.
.	.	.	.	4E\	.	.	.	.	.
.	.	.	.	4F\	.	.	.	.	.
2GG/	.	.	.	2G\	.	.	.	.	.
[2AA/	.	.	.	[2F\	-lei	.	.	.	.
=52	=52	=52	=52	=52	=52	=52	=52	=52	=52
4AA/]	.	0r	.	4F\]	.	0r	.	0r	.
4EE/	.	.	.	4E\	.	.	.	.	.
2GG/	.	.	.	1E	.	.	.	.	.
1FF	.	.	.	.	.	.	.	.	.
.	.	.	.	2D\	.	.	.	.	.
=53	=53	=53	=53	=53	=53	=53	=53	=53	=53
0EE	.	0r	.	[0E	so	0r	.	0r	.
=54	=54	=54	=54	=54	=54	=54	=54	=54	=54
1r	.	0r	.	0E]	.	0r	.	0r	.
[1AA	.	.	.	.	.	.	.	.	.
=55	=55	=55	=55	=55	=55	=55	=55	=55	=55
1AA]	.	0r	.	2r	.	0r	.	0r	.
.	.	.	.	1E	Chri-	.	.	.	.
1GG	.	.	.	.	.	.	.	.	.
.	.	.	.	[2G\	.	.	.	.	.
=56	=56	=56	=56	=56	=56	=56	=56	=56	=56
1C	.	0r	.	2G\]	.	0r	.	0r	.
.	.	.	.	4F\	.	.	.	.	.
.	.	.	.	4E\	.	.	.	.	.
1D	.	.	.	1F	.	.	.	.	.
=57	=57	=57	=57	=57	=57	=57	=57	=57	=57
2E\	.	0r	.	1E	-ste	0r	.	0r	.
1C	.	.	.	.	.	.	.	.	.
.	.	.	.	1A	e-	.	.	.	.
2D\	.	.	.	.	.	.	.	.	.
=58	=58	=58	=58	=58	=58	=58	=58	=58	=58
1E	.	0r	.	2G\	.	0r	.	0r	.
.	.	.	.	1c	-lei	.	.	.	.
1F	.	.	.	.	.	.	.	.	.
.	.	.	.	4B\	.	.	.	.	.
.	.	.	.	4A\	.	.	.	.	.
=59	=59	=59	=59	=59	=59	=59	=59	=59	=59
2D\	.	0r	.	1B	.	0r	.	0r	.
2.E\	.	.	.	.	.	.	.	.	.
.	.	.	.	2G\	.	.	.	.	.
4D\	.	.	.	.	.	.	.	.	.
4C/	.	.	.	[2A\	.	.	.	.	.
4BB/	.	.	.	.	.	.	.	.	.
=60	=60	=60	=60	=60	=60	=60	=60	=60	=60
1.AA	.	0r	.	2A\]	.	0r	.	0r	.
.	.	.	.	4G\	.	.	.	.	.
.	.	.	.	4F\	.	.	.	.	.
.	.	.	.	2A\	.	.	.	.	.
2BB/	.	.	.	[2G\	.	.	.	.	.
=61	=61	=61	=61	=61	=61	=61	=61	=61	=61
2C/	.	0r	.	4G\]	.	0r	.	0r	.
.	.	.	.	4F\	.	.	.	.	.
2.D\	.	.	.	4E\	.	.	.	.	.
.	.	.	.	4D\	.	.	.	.	.
.	.	.	.	1E	.	.	.	.	.
4C#i/	.	.	.	.	.	.	.	.	.
4C#i/	.	.	.	.	.	.	.	.	.
4BB/	.	.	.	.	.	.	.	.	.
=62	=62	=62	=62	=62	=62	=62	=62	=62	=62
[0D	.	1r	.	0D	son	0r	.	0a	Chri-
.	.	2r	.	.	.	.	.	.	.
.	.	[2A\	Chri-	.	.	.	.	.	.
=63	=63	=63	=63	=63	=63	=63	=63	=63	=63
0D]	.	4A\]	.	0r	.	0r	.	1.a	-ste
.	.	4G\	.	.	.	.	.	.	.
.	.	4F\	.	.	.	.	.	.	.
.	.	4E\	.	.	.	.	.	.	.
.	.	2F\	.	.	.	.	.	.	.
.	.	4E\	.	.	.	.	.	4g/	.
.	.	4D\	.	.	.	.	.	4f/	.
=64	=64	=64	=64	=64	=64	=64	=64	=64	=64
0r	.	2C/	.	0r	.	0A	Chri-	2e/	.
.	.	1D	-ste	.	.	.	.	1f	e-
.	.	4C/	.	.	.	.	.	4e/	.
.	.	4BB/	.	.	.	.	.	4d/	.
=65	=65	=65	=65	=65	=65	=65	=65	=65	=65
0r	.	1AA	.	0r	.	1.A	-ste	1c	.
.	.	1D	e-	.	.	.	.	1f	-lei
.	.	.	.	.	.	2B\	.	.	.
=66	=66	=66	=66	=66	=66	=66	=66	=66	=66
0r	.	1C	-lei-	0r	.	1c	e-	1e	.
.	.	1D	.	.	.	[1B	-lei	1d	.
=67	=67	=67	=67	=67	=67	=67	=67	=67	=67
0r	.	1E	.	0r	.	1B]	.	1g	.
.	.	2.AA/	.	.	.	[1A	.	2.c/	.
.	.	4BB/	.	.	.	.	.	4d/	.
=68	=68	=68	=68	=68	=68	=68	=68	=68	=68
0r	.	2C/	.	0r	.	1A]	.	2e/	.
.	.	2D\	.	.	.	.	.	2f/	.
.	.	1BB	.	.	.	1G	.	1d	.
=69	=69	=69	=69	=69	=69	=69	=69	=69	=69
1r	.	1AA	-son	2r	.	0A	son	[0c	son
.	.	.	.	2E\	Chri-	.	.	.	.
2r	.	2r	.	2.F\	-ste	.	.	.	.
2AA/	.	[2A\	Chri-	.	.	.	.	.	.
.	.	.	.	4E\	.	.	.	.	.
=70	=70	=70	=70	=70	=70	=70	=70	=70	=70
1C	.	2A\]	.	1E	.	0r	.	0c_	.
.	.	2G\	.	.	.	.	.	.	.
1AA	.	1A	.	2r	.	.	.	.	.
.	.	.	.	2E\	[Chri-	.	.	.	.
=71	=71	=71	=71	=71	=71	=71	=71	=71	=71
2r	.	2r	.	2.F\	-ste	0r	.	0c_	.
2AA/	.	1A	.	.	.	.	.	.	.
.	.	.	.	4E\	.	.	.	.	.
1C	.	.	.	1E	.	.	.	.	.
.	.	2G\	.	.	.	.	.	.	.
=72	=72	=72	=72	=72	=72	=72	=72	=72	=72
1AA	.	1A	-son	2r	.	0r	.	0c]	.
.	.	.	.	2E\	Chri-	.	.	.	.
2r	.	2r	.	2.F\	-ste]	.	.	.	.
2AA/	.	[2A\	e-	.	.	.	.	.	.
.	.	.	.	4E\	.	.	.	.	.
=73	=73	=73	=73	=73	=73	=73	=73	=73	=73
1C	.	4A\]	.	1E	.	0r	.	0r	.
.	.	4G\	.	.	.	.	.	.	.
.	.	4G\	.	.	.	.	.	.	.
.	.	4F\	.	.	.	.	.	.	.
1AA	.	2A\	-lei-	2r	.	.	.	.	.
.	.	4G\	.	[2E\	e-	.	.	.	.
.	.	4F\	.	.	.	.	.	.	.
=74	=74	=74	=74	=74	=74	=74	=74	=74	=74
2r	.	1E	-son	2E\]	.	[0E	Chri-	0r	.
1AA	.	.	.	4D\	.	.	.	.	.
.	.	.	.	4C/	.	.	.	.	.
.	.	2r	.	1BB	.	.	.	.	.
2GG/	.	[2E\	e-	.	.	.	.	.	.
=75	=75	=75	=75	=75	=75	=75	=75	=75	=75
1AA	.	2E\]	.	2AA/	.	0E]	.	0r	.
.	.	4D\	.	1A	-lei	.	.	.	.
.	.	4C/	.	.	.	.	.	.	.
1EE	.	1BB	.	.	.	.	.	.	.
.	.	.	.	2G#i\	.	.	.	.	.
=76	=76	=76	=76	=76	=76	=76	=76	=76	=76
2r	.	1AA	-lei	1A	son	0E	-ste	0r	.
2AA/	.	.	.	.	.	.	.	.	.
2GG/	.	2BB/	.	2r	.	.	.	.	.
[2AA/	.	[2C/	.	[2AA/	Chri-	.	.	.	.
=77	=77	=77	=77	=77	=77	=77	=77	=77	=77
2AA/]	.	2C/]	.	2AA/]	.	0E	e	1r	.
4GG/	.	4BB/	.	2BB/	.	.	.	.	.
4FF/	.	4AA/	.	.	.	.	.	.	.
1EE	.	1GG	.	1C	.	.	.	1e	Chri-
=78	=78	=78	=78	=78	=78	=78	=78	=78	=78
0DD	.	0AA	son]	0D	-ste	[0F	lei-	2A/	.
.	.	.	.	.	.	.	.	1d	-ste
.	.	.	.	.	.	.	.	4c/	.
.	.	.	.	.	.	.	.	4B/	.
=79	=79	=79	=79	=79	=79	=79	=79	=79	=79
0r	.	0r	.	1r	.	1.F]	.	1A	.
.	.	.	.	2r	.	.	.	1B	e-
.	.	.	.	2D\	e-	4E/	.	.	.
.	.	.	.	.	.	4D/	.	.	.
=80	=80	=80	=80	=80	=80	=80	=80	=80	=80
0AA	.	0r	.	1E	-lei-	0C	.	1c	-lei
.	.	.	.	1F	.	.	.	1A	.
=81	=81	=81	=81	=81	=81	=81	=81	=81	=81
0GG	.	0r	.	2G\	.	0D	.	2B/	.
.	.	.	.	4F\	.	.	.	1d	son
.	.	.	.	4E\	.	.	.	.	.
.	.	.	.	2D\	.	.	.	.	.
.	.	.	.	2G\	.	.	.	4c/	.
.	.	.	.	.	.	.	.	4B/	.
=82	=82	=82	=82	=82	=82	=82	=82	=82	=82
0FF	.	1r	.	1C	.	0F	.	1A	.
.	.	1AA	Chri-	1D	.	.	.	1a	[e-
=83	=83	=83	=83	=83	=83	=83	=83	=83	=83
0EE	.	2BB/	-ste	0E	-son	0G	.	1g	-lei-
.	.	1C	e	.	.	.	.	.	.
.	.	.	.	.	.	.	.	1e	-son
.	.	4BB/	.	.	.	.	.	.	.
.	.	4AA/	.	.	.	.	.	.	.
=84	=84	=84	=84	=84	=84	=84	=84	=84	=84
[0EE	.	2BB/	.	0r	.	[0E	.	2r	.
.	.	1C	lei	.	.	.	.	1e	e-
.	.	4BB/	.	.	.	.	.	[2g/	-lei
.	.	4AA/	.	.	.	.	.	.	.
=85	=85	=85	=85	=85	=85	=85	=85	=85	=85
0EE]	.	0GG	.	2r	.	0E]	.	2g/]	.
.	.	.	.	1E	Chri-	.	.	4f/	.
.	.	.	.	.	.	.	.	4e/	son
.	.	.	.	.	.	.	.	1g	.
.	.	.	.	[2G\	-ste	.	.	.	.
=86	=86	=86	=86	=86	=86	=86	=86	=86	=86
[0GG	.	[0BB	.	2G\]	.	[0Dl	-son	1r	.
.	.	.	.	4F\	.	.	.	.	.
.	.	.	.	4E\	.	.	.	.	.
.	.	.	.	1G	e-	.	.	2r	.
.	.	.	.	.	.	.	.	[2g/	e-
=87	=87	=87	=87	=87	=87	=87	=87	=87	=87
0GG]	.	0BB]	.	1r	.	0D_	.	2g/]	.
.	.	.	.	.	.	.	.	4f/	.
.	.	.	.	.	.	.	.	4e/	.
.	.	.	.	1G	-lei-	.	.	1g	-lei
=88	=88	=88	=88	=88	=88	=88	=88	=88	=88
0DDl	.	0AAl	son	0Al	-son	0D]	.	0fl	son]
!!LO:LB:i:g=z
=89||	=89||	=89||	=89||	=89||	=89||	=89||	=89||	=89||	=89||
*>C	*>C	*>C	*>C	*>C	*>C	*>C	*>C	*>C	*>C
*clefF4	*	*clefF4	*	*clefF4	*	*clefGv2	*	*clefG2	*
*k[]	*	*k[]	*	*k[]	*	*k[]	*	*k[]	*
*M2/1	*	*M2/1	*	*M2/1	*	*M2/1	*	*M2/1	*
*met(C|)	*	*met(C|)	*	*met(C|)	*	*met(C|)	*	*met(C|)	*
!!section: Kyrie II
!!!OMD: Kyrie II
0r	.	2.AA/	Ky-	1r	.	[0A	Ky-	0r	.
.	.	4BB/	.	.	.	.	.	.	.
.	.	2C/	.	2r	.	.	.	.	.
.	.	2D\	-ri-	[2F\	Ky-	.	.	.	.
=90	=90	=90	=90	=90	=90	=90	=90	=90	=90
0r	.	2AA/	-e	2F\]	.	0A]	.	0r	.
.	.	1D	[e-	4E\	.	.	.	.	.
.	.	.	.	4D\	.	.	.	.	.
.	.	.	.	1E	-ri-	.	.	.	.
.	.	2C#i/	.	.	.	.	.	.	.
=91	=91	=91	=91	=91	=91	=91	=91	=91	=91
0r	.	0D	-lei-	2D\	-e	0A	-ri-	2r	.
.	.	.	.	1d	e-	.	.	1f	Ky-
.	.	.	.	4c\	.	.	.	4e/	-ri-
.	.	.	.	4B\	.	.	.	4d/	.
=92	=92	=92	=92	=92	=92	=92	=92	=92	=92
0r	.	0F	.	1A	.	0A	-e	1c	-e
.	.	.	.	1F	-lei-	.	.	[1f	e-
=93	=93	=93	=93	=93	=93	=93	=93	=93	=93
0r	.	0C	.	0c	-son	0G	e-	2f/]	.
.	.	.	.	.	.	.	.	2e/	.
.	.	.	.	.	.	.	.	2e/	-lei-
.	.	.	.	.	.	.	.	4d/	.
.	.	.	.	.	.	.	.	4e/	.
=94	=94	=94	=94	=94	=94	=94	=94	=94	=94
0r	.	[0D	.	0A	.	0F	-lei-	[0f	-son
=95	=95	=95	=95	=95	=95	=95	=95	=95	=95
1r	.	1D]	.	0r	.	1.A	.	0f]	.
1D	.	1F	-son	.	.	.	.	.	.
.	.	.	.	.	.	2B\	.	.	.
=96	=96	=96	=96	=96	=96	=96	=96	=96	=96
1C	.	1E	e-	0r	.	1c	.	0r	.
1D	.	1D	.	.	.	[1B	.	.	.
=97	=97	=97	=97	=97	=97	=97	=97	=97	=97
1AA	.	1E	-lei-	1r	.	1B]	.	0r	.
1C	.	1C	.	1E	Ky-	[1A	.	.	.
=98	=98	=98	=98	=98	=98	=98	=98	=98	=98
0BB	.	0D	.	1F	-ri-	1A]	.	0r	.
.	.	.	.	1G	.	1G	.	.	.
=99	=99	=99	=99	=99	=99	=99	=99	=99	=99
1.AA	.	1E	-son]	2C/	-e	0A	-son	0r	.
.	.	.	.	1c	.	.	.	.	.
.	.	2r	.	.	.	.	.	.	.
4GG/	.	[2E\	e-	4B\	.	.	.	.	.
4FF/	.	.	.	4A\	.	.	.	.	.
=100	=100	=100	=100	=100	=100	=100	=100	=100	=100
1EE	.	4E\]	.	1G	.	0r	.	1r	.
.	.	4D\	.	.	.	.	.	.	.
.	.	4C/	-lei-	.	.	.	.	.	.
.	.	4BB/	.	.	.	.	.	.	.
1r	.	[1AA	-son	1A	.	.	.	2r	.
.	.	.	.	.	.	.	.	[2e/	Ky-
=101	=101	=101	=101	=101	=101	=101	=101	=101	=101
2r	.	1AA]	.	1E	e	[0A	Ky-	4e/]	.
.	.	.	.	.	.	.	.	4d/	.
2.AA/	.	.	.	.	.	.	.	4c/	.
.	.	.	.	.	.	.	.	4B/	.
.	.	1r	.	1r	.	.	.	2A/	.
4GG/	.	.	.	.	.	.	.	.	.
4FF/	.	.	.	.	.	.	.	[2a/	.
4EE/	.	.	.	.	.	.	.	.	.
=102	=102	=102	=102	=102	=102	=102	=102	=102	=102
2DD/	.	0r	.	2r	.	0A]	.	4a/]	.
.	.	.	.	.	.	.	.	4g/	.
2D\	.	.	.	2.A\	e-	.	.	2f/	.
2C/	.	.	.	.	.	.	.	2e/	.
.	.	.	.	4G\	.	.	.	.	.
2D\	.	.	.	4F\	.	.	.	[2f/	-ri-
.	.	.	.	4E\	.	.	.	.	.
=103	=103	=103	=103	=103	=103	=103	=103	=103	=103
1DD	.	0r	.	2D\	.	0A	-ri-	4f/]	.
.	.	.	.	.	.	.	.	4e/	.
.	.	.	.	2F\	.	.	.	1d	.
1AA	.	.	.	1E	-lei-	.	.	.	.
.	.	.	.	.	.	.	.	2c#i/	.
=104	=104	=104	=104	=104	=104	=104	=104	=104	=104
0DD	.	2r	.	0D	-son	0A	-e	1d	-e
.	.	2.D\	e-	.	.	.	.	.	.
.	.	.	.	.	.	.	.	2r	.
.	.	4C/	.	.	.	.	.	.	.
.	.	4BB/	-lei-	.	.	.	.	2d/	e-
.	.	4AA/	.	.	.	.	.	.	.
=105	=105	=105	=105	=105	=105	=105	=105	=105	=105
0r	.	[0GG	-son	0r	.	0B	e-	4d/	.
.	.	.	.	.	.	.	.	4c/	.
.	.	.	.	.	.	.	.	4B/	.
.	.	.	.	.	.	.	.	4A/	.
.	.	.	.	.	.	.	.	2G/	.
.	.	.	.	.	.	.	.	[2g/	-lei-
=106	=106	=106	=106	=106	=106	=106	=106	=106	=106
0r	.	0GG]	.	2r	.	0B	-lei-	2g/]	.
.	.	.	.	2.G\	Ky-	.	.	4f/	.
.	.	.	.	.	.	.	.	4e/	.
.	.	.	.	.	.	.	.	1d	.
.	.	.	.	4F\	.	.	.	.	.
.	.	.	.	4E\	.	.	.	.	.
.	.	.	.	4D\	.	.	.	.	.
=107	=107	=107	=107	=107	=107	=107	=107	=107	=107
0r	.	0r	.	2.C/	.	[0c	-son	2.e/	.
.	.	.	.	4D\	.	.	.	4f/	.
.	.	.	.	2E\	.	.	.	2g/	.
.	.	.	.	2F\	-ri	.	.	2a/	.
=108	=108	=108	=108	=108	=108	=108	=108	=108	=108
0r	.	0r	.	2E\	.	0c]	.	2g/	.
.	.	.	.	1F	e	.	.	1a	-son
.	.	.	.	4E\	.	.	.	4g/	.
.	.	.	.	4D\	.	.	.	4f/	.
=109	=109	=109	=109	=109	=109	=109	=109	=109	=109
0r	.	1r	.	0C	.	[0c	[Ky-	1e	.
.	.	2r	.	.	.	.	.	2r	.
.	.	[2AA/	Ky-	.	.	.	.	[2e/	Ky-
=110	=110	=110	=110	=110	=110	=110	=110	=110	=110
0r	.	4AA/]	.	0r	.	1c]	.	2e/]	.
.	.	4BB/	.	.	.	.	.	.	.
.	.	4C/	.	.	.	.	.	2.a/	-ri-
.	.	4D\	.	.	.	.	.	.	.
.	.	1E	.	.	.	1B	-ri-	.	.
.	.	.	.	.	.	.	.	4g#i/	.
.	.	.	.	.	.	.	.	4g#i/	.
.	.	.	.	.	.	.	.	4f#i/	.
=111	=111	=111	=111	=111	=111	=111	=111	=111	=111
1r	.	2F\	-ri-	0r	.	0A	-e	0a	-e
.	.	4E\	.	.	.	.	.	.	.
.	.	4D\	.	.	.	.	.	.	.
1AA	.	2F\	.	.	.	.	.	.	.
.	.	[2E\	-e	.	.	.	.	.	.
=112	=112	=112	=112	=112	=112	=112	=112	=112	=112
1C	.	2E\]	.	0r	.	0G	e-	0r	.
.	.	4D\	.	.	.	.	.	.	.
.	.	4C/	.	.	.	.	.	.	.
1BB	.	1D	.	.	.	.	.	.	.
=113	=113	=113	=113	=113	=113	=113	=113	=113	=113
0AA	.	1.E	e-	0r	.	0A	-lei-	1r	.
.	.	.	.	.	.	.	.	1e	e-
.	.	4D\	.	.	.	.	.	.	.
.	.	4C/	.	.	.	.	.	.	.
=114	=114	=114	=114	=114	=114	=114	=114	=114	=114
0r	.	1D	.	1r	.	1F	.	1f	.
.	.	1C	.	1E	e-	[1G	.	[1e	.
=115	=115	=115	=115	=115	=115	=115	=115	=115	=115
0r	.	0BB	-lei-	1F	.	2G/]	.	2e/]	.
.	.	.	.	.	.	2F/	.	2d/	.
.	.	.	.	1G	-lei-	2E/	.	[1d	-lei-
.	.	.	.	.	.	2D/	.	.	.
=116	=116	=116	=116	=116	=116	=116	=116	=116	=116
0AA	.	0AA	.	0A	.	0E	.	2d/]	.
.	.	.	.	.	.	.	.	2c#i/	.
.	.	.	.	.	.	.	.	2c#i/	.
.	.	.	.	.	.	.	.	4B/	.
.	.	.	.	.	.	.	.	4c#i/	.
=117	=117	=117	=117	=117	=117	=117	=117	=117	=117
0DDl	.	0AAl	-son	0Al	-son	0Dl	-son-	0dl	-son
==	==	==	==	==	==	==	==	==	==
*-	*-	*-	*-	*-	*-	*-	*-	*-	*-
!!!RDF**kern: l=long note in original notation
!!!RDF**kern: i=editorial accidental
!!!ENC:	Jesse Rodin 8/24/2013
!!!END:	2013/08/24/
!!!EED:	Jesse Rodin
!!!EEV:	2013/08/29/
!!!ONB:	Translated from MusicXML and edited on 2013/08/29/ by Craig Sapp
!!muse2ps: T^@{OPR}^u^@{ONM}{. }@{OTL}^C^@{COM}^i2I150v85,85,85,85,110Q2c180
